F1 Grump/assets/track outlines/Lusail - White.svg

<svg width="3643" height="2651" viewBox="0 0 3643 2651" fill="none" xmlns="http://www.w3.org/2000/svg">
<g clip-path="url(#clip0_13_600)">
<path d="M1706.42 2612.26C1296.28 2613.26 901.949 2603.51 512.749 2602.4C283.009 2601.74 255.749 2347.51 382.749 2278.64C525.409 2201.28 659.599 2135.64 798.869 2054.44C903.459 1993.44 911.709 1826.76 782.729 1761.17C646.259 1691.78 561.929 1646.51 430.279 1571.94C398.159 1553.75 355.769 1505.56 343.279 1470.6C236.899 1172.87 148.899 899.64 48.1886 598C17.4886 506.05 60.7786 421.32 162.999 386.34C241.659 359.42 276.619 346.34 361.199 319.08C436.999 294.65 532.999 358.28 564.759 440.15C631.089 611.34 678.299 781.38 733.369 950.45C745.929 989.03 798.939 1037.23 831.119 1036.54C856.599 1036 905.439 1013.1 910.039 981.83C950.209 708.98 989.369 436.27 1023.94 163.93C1030.94 108.44 1088.68 64.6499 1128.87 47.3399C1166.41 31.1699 1222.14 38.9799 1258.01 56.3399C1293.88 73.6999 1328.79 111.4 1344.1 151.4C1365.86 208.26 1364.25 273.52 1387.15 330.77C1416.86 405.05 1452.9 481.6 1508.22 540.63C1546.22 581.19 1612.89 623.84 1655.16 672.92C1680.94 702.86 1732.78 758.36 1712.7 827.61C1688.96 909.46 1632.79 1070.16 1597.01 1240.15C1588.1 1282.45 1612.66 1336.68 1645.44 1358.53C1684.44 1384.53 1758.79 1382.94 1808.66 1368.4C1902.28 1341.09 1998.53 1304.63 2083.09 1249.12C2155.18 1201.79 2215.09 1142.45 2273.21 1078.72C2317.99 1029.62 2357.86 972.9 2386.21 911.91C2469.06 733.74 2534.98 550.76 2608.63 366.64C2630.63 311.64 2668.51 241.64 2716.25 213.29C2745.25 196.07 2802 170.39 2834.63 170.29C2967.1 169.66 3041.25 168.75 3175.42 171.18C3210 171.82 3273.31 210.69 3289.32 241.18C3360.2 375.99 3422.32 483.57 3497.38 612.46C3517.62 647.22 3519.45 726.7 3487.51 764.03C3328.39 950.03 3211.04 1095.93 3046.28 1279.7C2999.28 1332.1 2969.65 1425.49 3006.82 1482.38C3198.44 1775.72 3356.66 2049.99 3575.4 2347.82C3648.84 2447.82 3575.05 2597.38 3452.54 2598.03C2860.63 2601.07 2305.5 2610.84 1706.42 2612.26Z" stroke="white" stroke-width="77" stroke-linejoin="round"/>
</g>
<defs>
<clipPath id="clip0_13_600">
<rect width="3643" height="2651" fill="white"/>
</clipPath>
</defs>
</svg>

<svg xmlns="http://www.w3.org/2000/svg" viewBox="0 0 3643.14 3434.88"><defs><style>.cls-1{fill:#fff;}.cls-2{fill:none;stroke:#fff;stroke-linejoin:round;stroke-width:77px;}</style></defs><title>Lusail - White</title><g id="Layer_2" data-name="Layer 2"><g id="Layer_1-2" data-name="Layer 1"><path class="cls-1" d="M1259,3366.7q-78.29,0-108.08-42.92t-29.79-135.09q0-92.16,30.3-136.85t107.57-44.7q77.25,0,107.81,44.44t30.56,136.86q0,64.14-13.13,102.77t-45,57.31l42.93,69.19-36.37,17.17-44.43-72.72Q1284.76,3366.71,1259,3366.7Zm-98-178.26q0,76.77,20.2,110.34t78,33.58q57.81,0,77.77-32.57t20-110.09q0-77.5-20.71-112.87t-77.52-35.35q-56.8,0-77.26,35.1T1161,3188.44Z"/><path class="cls-1" d="M1431.71,3361.65l96-349.46h84.84l96,349.46h-38.38l-25.25-89.89H1495.34l-25.25,89.89ZM1557,3045.52l-53,191.4h132.31l-53-191.4Z"/><path class="cls-1" d="M1703.4,3047v-34.85h252.5V3047H1849.35v314.61H1811V3047Z"/><path class="cls-1" d="M1950.85,3361.65l95.94-349.46h84.85l96,349.46H2189.2L2164,3271.76H2014.47l-25.25,89.89Zm125.24-316.13-53,191.4h132.31l-53-191.4Z"/><path class="cls-1" d="M2321.51,3227.83v133.82h-38.88V3012.19h129.28q55.55,0,83.57,25.76t28,80.29q0,80.81-64.13,101.51l67.16,141.9h-42.92l-63.13-133.82Zm90.9-34.34q71.21,0,71.21-73.48t-71.71-73.48h-90.4v147Z"/><path id="path2406" class="cls-2" d="M1706.42,2612.26c-410.14,1-804.47-8.75-1193.67-9.86-229.74-.66-257-254.89-130-323.76,142.66-77.36,276.85-143,416.12-224.2,104.59-61,112.84-227.68-16.14-293.27-136.47-69.39-220.8-114.66-352.45-189.23-32.12-18.19-74.51-66.38-87-101.34C236.9,1172.87,148.9,899.64,48.19,598,17.49,506.05,60.78,421.32,163,386.34c78.66-26.92,113.62-40,198.2-67.26C437,294.65,533,358.28,564.76,440.15c66.33,171.19,113.54,341.23,168.61,510.3,12.56,38.58,65.57,86.78,97.75,86.09,25.48-.54,74.32-23.44,78.92-54.71,40.17-272.85,79.33-545.56,113.9-817.9,7-55.49,64.74-99.28,104.93-116.59,37.54-16.17,93.27-8.36,129.14,9s70.78,55.06,86.09,95.06c21.76,56.86,20.15,122.12,43.05,179.37,29.71,74.28,65.75,150.83,121.07,209.86,38,40.56,104.67,83.21,146.94,132.29,25.78,29.94,77.62,85.44,57.54,154.69-23.74,81.85-79.91,242.55-115.69,412.54-8.91,42.3,15.65,96.53,48.43,118.38,39,26,113.35,24.41,163.22,9.87,93.62-27.31,189.87-63.77,274.43-119.28,72.09-47.33,132-106.67,190.12-170.4,44.78-49.1,84.65-105.82,113-166.81,82.85-178.17,148.77-361.15,222.42-545.27,22-55,59.88-125,107.62-153.35,29-17.22,85.75-42.9,118.38-43,132.47-.63,206.62-1.54,340.79.89,34.58.64,97.89,39.51,113.9,70,70.88,134.81,133,242.39,208.06,371.28,20.24,34.76,22.07,114.24-9.87,151.57-159.12,186-276.47,331.9-441.23,515.67-47,52.4-76.63,145.79-39.46,202.68,191.62,293.34,349.84,567.61,568.58,865.44,73.44,100-.35,249.56-122.86,250.21C2860.63,2601.07,2305.5,2610.84,1706.42,2612.26Z"/></g></g></svg>
